src/assets/tile-dark.svg

<?xml version="1.0" encoding="UTF-8"?>
<svg width="178px" height="178px" viewBox="0 0 178 178" version="1.1" xmlns="http://www.w3.org/2000/svg" xmlns:xlink="http://www.w3.org/1999/xlink">
    <!-- Generator: Sketch 52.5 (67469) - http://www.bohemiancoding.com/sketch -->
    <title>Artboard</title>
    <desc>Created with Sketch.</desc>
    <g id="Artboard" stroke="none" stroke-width="1" fill="none" fill-rule="evenodd">
        <path d="M90,90 L90,178 L88,178 L88,90 L2,90 L2,178 L-1.27897692e-13,178 L-1.27897692e-13,90 L-1.70530257e-13,88 L-1.27897692e-13,1.27897692e-13 L2,1.27897692e-13 L88,5.68434189e-14 L90,1.3500312e-13 L178,7.10542736e-14 L178,2 L90,2 L90,88 L178,88 L178,90 L90,90 Z M88,88 L88,2 L2,2 L2,88 L88,88 Z" id="Combined-Shape" fill="#FFFFFF" fill-rule="nonzero" opacity="0.02"></path>
        <path d="M89.9991879,88.000259 L90.0015355,88.0002593 L90.0015355,88.0038248 L98.9991928,88.0038248 L98.9991928,90.003663 L90.0015355,90.003663 L90.0015355,99 L88.0016973,99 L88.0016973,90.003663 L88.0008072,90.003663 L88.0008121,89.999741 L87.9984645,89.9997407 L87.9984645,89.9961752 L79.0008072,89.9961752 L79.0008072,87.996337 L87.9984645,87.996337 L87.9984645,79 L89.9983027,79 L89.9983027,87.996337 L89.9991928,87.996337 L89.9991879,88.000259 Z" id="Combined-Shape" fill="#FFFFFF" fill-rule="nonzero" opacity="0.05"></path>
    </g>
</svg>

<svg width="178" height="178" viewBox="0 0 178 178" xmlns="http://www.w3.org/2000/svg"><g fill="#FFF"><path d="M90 90v88h-2V90H2v88H0V0h178v2H90v86h88v2H90Zm-2-2V2H2v86h86Z" opacity=".02"/><path d="M90 88h.002v.004h8.997v2h-8.997V99h-2v-8.996H88V90h-.003v-.004H79v-2h8.997V79h2v8.996H90V88Z" opacity=".05"/></g></svg>
